X: 1
T: the Plough and the Stars
S: attr. Larry Redican
R: reel
Z: id:hn-reel-803
B: McNulty (Dance Music of Ireland), 1965; p. 13.
B: Mulvihill (1st Collection), 1986; #203, p. 55.
M: C|
L: 1/8
K: G
|: BA |\
GEDE GABd | g2bg aged | Bd~d2 ed~d2 | gedB A2BA |\
GEDE GABd | g2bg aged | Bd~d2 edBG | AGAB G2:|
|: (3def |\
g3b a2ba | gabg aged | Bd~d2 ed~d2 | gedB A2BA |\
GEDE GABd | g2bg aged | Bd~d2 edBG | AGAB G2 :|
